!!!OTL: Arbeitsamkeit.
!!!OTL-incipit:ARBEIT MACHT DAS LEBEN SUESS
!!!COM: G. W. Fink
!!!ARE: Europa, Mitteleuropa, Deutschland
!!!SCT: F0260
!!!TXL: @@DE
!!!YEM: Copyright 1995, estate of Helmut Schaffrath.
**kern	**text
*ICvox	*
*clefG2	*
*M3/4	*
*k[f#]	*
*G:	*
=1	=1
!LO:TX:a:t=Im Menuett-Takt.	!
{4.b/	1._Arbeit
8a	.
8g	macht
8b/	das
=2	=2
8.ee	Leben
16dd	.
2dd}	ſüß,
=3	=3
{4.cc	macht
8b/	es
8cc	nicht
8dd	ʒur
=4	=4
4b/	Laſt.
4r	.
4r}	.
=5	=5
{4.a	Der
8a	nur
8b/	hat
8cc#/	Be-
=6	=6
8.dd/	-kümmer-
16a	.
2a}	-niß,
=7	=7
{4.ff#	der
8ee	die
8dd	Ar-
8cc#	-beit
=8	=8
2.dd}	haßt.
=9	=9
{4.ccn	Kräf-
8b	-te
8ee	gab
8dd	uns
=10	=10
8.cc	die
16b/	Na-
4cc	-tur
4r}	.
=11	=11
{8.b/	ʒu
16ee	Be-
4dd	-ruf
4cc#	und
=12	=12
2dd	Pflicht
4r}	.
=13	=13
{8ccn	lee-
8cc	-re
8cc	Mü-
8cc	-ßig-
8b/	-gänger
8b/	.
=14	=14
4ee'	nur
4ee	kla-
4ee}	-gen,
=15	=15
{2dd	le-
4f#	-ben
=16	=16
2g	nicht.
4r}	.
==	==
!!!AGN: Jugend - Lied, Belehrung, Moral, religioes
!!!ONB: ESAC (Essen Associative Code) Database: FINK
!!!AMT: simple triple
!!!AIN: vox
!!!EED: Helmut Schaffrath
!!!EEV: 1.0
!!!GTL: Jugendlieder
!!Text: G. W. Burmann
!!!source: Musikalischer Hausschatz der Deutschen. Eine Sammlung von über 1000 Liedern und Gesängen mit Singstimmen und Klavierbegleitung. Leipzig, Litterarisches Verlags-Haus.
!!!page: 156
!!!URL-scan: https://www.digitale-sammlungen.de/en/view/bsb11144622?page=154,155
!!!ENC: Anna Maria Matuszewska
!!!EEV: 2024/07/29
*-	*-